static/fa/svgs/solid/bridge-water.svg

<svg xmlns="http://www.w3.org/2000/svg" viewBox="0 0 576 512"><!--! Font Awesome Free 6.1.1 by @fontawesome - https://fontawesome.com License - https://fontawesome.com/license/free (Icons: CC BY 4.0, Fonts: SIL OFL 1.1, Code: MIT License) Copyright 2022 Fonticons, Inc.--><path d="M0 96c0-17.67 14.33-32 32-32h512c17.7 0 32 14.33 32 32v35.6c0 15.7-12.7 28.4-28.4 28.4-37.4 0-67.6 30.2-67.6 67.6v124.9c-12.9 0-25.8 3.8-36.8 11.6-18 12.4-40.2 20.4-59.2 20.4V256c0-53.9-43-96-96-96-53.9 0-96 42.1-96 96v128l-.9.5c-19-.1-40.3-8-58.2-20.4-11.1-7.8-24-11.7-36.9-11.6V227.6c0-37.4-30.25-67.6-67.56-67.6C12.74 160 0 147.3 0 131.6V96zm384 320c26.9 0 55.4-10.8 77.4-26.1h.1c11.9-8.5 28-7.8 39.2 1.7 14.4 11.9 32.5 21 50.6 25.2 17.2 4 27.9 21.3 23.9 38.5s-22.1 27.9-38.5 23.9c-24.5-5.8-44.8-16.6-58.2-25-29 15.5-61.5 25.8-94.5 25.8-31.9 0-60.6-9.9-80.4-18.9-5.9-2.6-11.1-5.3-15.6-7.7-4.5 2.4-9.7 5.1-15.6 7.7-19.8 9-48.5 18.9-80.4 18.9-33.9 0-65.5-10.3-94.5-25.8-13.37 8.4-33.71 19.2-58.23 25-17.21 4-34.416-6.7-38.427-23.9-4.011-17.2 6.69-34.5 23.897-38.5 18.1-4.2 36.22-13.3 50.57-25.2 11.15-9.5 27.29-10.2 39.19-1.7h.1c22.1 15.3 50.5 26.1 77.4 26.1 27.5 0 55-10.6 77.5-26.1 11.1-7.9 25.9-7.9 37 0 21.6 15.5 50 26.1 77.5 26.1z"/></svg>

<svg xmlns="http://www.w3.org/2000/svg" viewBox="0 0 576 512"><!--! Font Awesome Free 6.1.1 by @fontawesome - https://fontawesome.com License - https://fontawesome.com/license/free (Icons: CC BY 4.0, Fonts: SIL OFL 1.1, Code: MIT License) Copyright 2022 Fonticons, Inc. --><path d="M.0003 96C.0003 78.33 14.33 64 32 64H544C561.7 64 576 78.33 576 96V131.6C576 147.3 563.3 160 547.6 160C510.2 160 480 190.2 480 227.6V352.5C467.1 352.5 454.2 356.3 443.2 364.1C425.2 376.5 403 384.5 384 384.5L384 384V256C384 202.1 341 160 288 160C234.1 160 192 202.1 192 256V384L191.1 384.5C172.1 384.4 150.8 376.5 132.9 364.1C121.8 356.3 108.9 352.4 96 352.5V227.6C96 190.2 65.75 160 28.44 160C12.74 160 0 147.3 0 131.6L.0003 96zM384 416C410.9 416 439.4 405.2 461.4 389.9L461.5 389.9C473.4 381.4 489.5 382.1 500.7 391.6C515.1 403.5 533.2 412.6 551.3 416.8C568.5 420.8 579.2 438.1 575.2 455.3C571.2 472.5 553.1 483.2 536.7 479.2C512.2 473.4 491.9 462.6 478.5 454.2C449.5 469.7 417 480 384 480C352.1 480 323.4 470.1 303.6 461.1C297.7 458.5 292.5 455.8 288 453.4C283.5 455.8 278.3 458.5 272.4 461.1C252.6 470.1 223.9 480 192 480C158.1 480 126.5 469.7 97.5 454.2C84.13 462.6 63.79 473.4 39.27 479.2C22.06 483.2 4.854 472.5 .8429 455.3C-3.168 438.1 7.533 420.8 24.74 416.8C42.84 412.6 60.96 403.5 75.31 391.6C86.46 382.1 102.6 381.4 114.5 389.9L114.6 389.9C136.7 405.2 165.1 416 192 416C219.5 416 247 405.4 269.5 389.9C280.6 382 295.4 382 306.5 389.9C328.1 405.4 356.5 416 384 416H384z"/></svg>
